X: 140
T: A Costa De Galicia
R: waltz
M: 3/4
K: Dmajor
D>F|:AA/G/ AA D>F|GG/F/ G2 C>E|GG/F/ GE A>G|FF/E/ D2 D>F|
AA/G/ AA D>F|GG/F/ G2 C>E|GG/F/ GE A>G|FF/E/ D2-D2-|
DA/_B/ =cB AB|AA/G/ A2-A2-|AA/_B/ =cB AC|_B>A G2-G2-|
GA/_B/ =cB AB|AA/G/ AB/A/ FE|DD G2 E>D|CE G2-G2-|
GA/_B/ =cB AB|AA/G/ AB/A/ FE|DD G2 F>E|1 CE D2 D>F:|2 CF D2-D2||

